X:3
T:Plain Hunt 5
M:6/8
L:1/8
K:Gmaj
edc BAG | deB cAG | dBe AcG | BdA ecG |
BAd ceG | ABc deG | AcB edG | cAe BdG |
ceA dBG | ecd ABG | edc BAG |


